images/673467.svg

<?xml version="1.0" encoding="UTF-8"?>
<svg xmlns="http://www.w3.org/2000/svg" xmlns:xlink="http://www.w3.org/1999/xlink" width="300pt" height="300pt" viewBox="0 0 300 300" version="1.1">
<defs>
<g>
<symbol overflow="visible" id="glyph0-0">
<path style="stroke:none;" d="M 0.640625 2.296875 L 0.640625 -9.171875 L 7.140625 -9.171875 L 7.140625 2.296875 Z M 1.375 1.578125 L 6.421875 1.578125 L 6.421875 -8.4375 L 1.375 -8.4375 Z M 1.375 1.578125 "/>
</symbol>
<symbol overflow="visible" id="glyph0-1">
<path style="stroke:none;" d="M 1.28125 -9.484375 L 2.5625 -9.484375 L 2.5625 -5.59375 L 7.21875 -5.59375 L 7.21875 -9.484375 L 8.5 -9.484375 L 8.5 0 L 7.21875 0 L 7.21875 -4.515625 L 2.5625 -4.515625 L 2.5625 0 L 1.28125 0 Z M 1.28125 -9.484375 "/>
</symbol>
<symbol overflow="visible" id="glyph0-2">
<path style="stroke:none;" d="M 5.125 -8.609375 C 4.1875 -8.609375 3.441406 -8.257812 2.890625 -7.5625 C 2.347656 -6.875 2.078125 -5.929688 2.078125 -4.734375 C 2.078125 -3.535156 2.347656 -2.585938 2.890625 -1.890625 C 3.441406 -1.203125 4.1875 -0.859375 5.125 -0.859375 C 6.050781 -0.859375 6.785156 -1.203125 7.328125 -1.890625 C 7.878906 -2.585938 8.15625 -3.535156 8.15625 -4.734375 C 8.15625 -5.929688 7.878906 -6.875 7.328125 -7.5625 C 6.785156 -8.257812 6.050781 -8.609375 5.125 -8.609375 Z M 5.125 -9.65625 C 6.445312 -9.65625 7.503906 -9.207031 8.296875 -8.3125 C 9.097656 -7.414062 9.5 -6.222656 9.5 -4.734375 C 9.5 -3.234375 9.097656 -2.035156 8.296875 -1.140625 C 7.503906 -0.253906 6.445312 0.1875 5.125 0.1875 C 3.789062 0.1875 2.722656 -0.253906 1.921875 -1.140625 C 1.128906 -2.035156 0.734375 -3.234375 0.734375 -4.734375 C 0.734375 -6.222656 1.128906 -7.414062 1.921875 -8.3125 C 2.722656 -9.207031 3.789062 -9.65625 5.125 -9.65625 Z M 5.125 -9.65625 "/>
</symbol>
<symbol overflow="visible" id="glyph0-3">
<path style="stroke:none;" d="M 1.28125 -9.484375 L 3 -9.484375 L 7.203125 -1.546875 L 7.203125 -9.484375 L 8.453125 -9.484375 L 8.453125 0 L 6.71875 0 L 2.515625 -7.921875 L 2.515625 0 L 1.28125 0 Z M 1.28125 -9.484375 "/>
</symbol>
</g>
</defs>
<g id="surface45673">
<rect x="0" y="0" width="300" height="300" style="fill:rgb(100%,100%,100%);fill-opacity:1;stroke:none;"/>
<path style="fill:none;stroke-width:1;stroke-linecap:butt;stroke-linejoin:miter;stroke:rgb(0%,0%,0%);stroke-opacity:1;stroke-miterlimit:10;" d="M 67.964844 137.226562 L 67.964844 137.226562 M 67.71875 140.21875 L 68.757812 140.121094 M 67.472656 143.207031 L 69.550781 143.015625 M 67.230469 146.199219 L 70.34375 145.90625 M 66.984375 149.1875 L 71.136719 148.800781 M 66.738281 152.175781 L 71.929688 151.695312 M 66.492188 155.167969 L 72.722656 154.585938 M 66.246094 158.15625 L 73.515625 157.480469 M 66.003906 161.148438 L 74.308594 160.375 M 65.757812 164.136719 L 75.101562 163.265625 M 65.511719 167.128906 L 75.894531 166.160156 M 65.265625 170.117188 L 76.6875 169.054688 M 65.253906 170.292969 L 76.734375 169.222656 "/>
<path style="fill:none;stroke-width:1.2;stroke-linecap:butt;stroke-linejoin:miter;stroke:rgb(0%,0%,0%);stroke-opacity:1;stroke-miterlimit:10;" d="M 67.964844 137.226562 L 64.9375 104.699219 "/>
<path style="fill:none;stroke-width:1.2;stroke-linecap:butt;stroke-linejoin:miter;stroke:rgb(0%,0%,0%);stroke-opacity:1;stroke-miterlimit:10;" d="M 67.964844 137.226562 L 100.492188 134.199219 "/>
<path style="fill:none;stroke-width:1.2;stroke-linecap:butt;stroke-linejoin:miter;stroke:rgb(0%,0%,0%);stroke-opacity:1;stroke-miterlimit:10;" d="M 67.964844 137.226562 L 51.699219 138.742188 "/>
<path style="fill:none;stroke-width:1.2;stroke-linecap:butt;stroke-linejoin:miter;stroke:rgb(100%,0%,0%);stroke-opacity:1;stroke-miterlimit:10;" d="M 51.699219 138.742188 L 35.433594 140.257812 "/>
<path style="fill:none;stroke-width:1.2;stroke-linecap:butt;stroke-linejoin:miter;stroke:rgb(0%,0%,0%);stroke-opacity:1;stroke-miterlimit:10;" d="M 64.9375 104.699219 L 50.09375 97.878906 "/>
<path style="fill:none;stroke-width:1.2;stroke-linecap:butt;stroke-linejoin:miter;stroke:rgb(100%,0%,0%);stroke-opacity:1;stroke-miterlimit:10;" d="M 50.09375 97.878906 L 35.25 91.058594 "/>
<path style=" stroke:none;fill-rule:nonzero;fill:rgb(100%,100%,100%);fill-opacity:1;" d="M 14.25 83.058594 L 35.25 83.058594 L 35.25 99.058594 L 14.25 99.058594 Z M 14.25 83.058594 "/>
<g style="fill:rgb(100%,0%,0%);fill-opacity:1;">
  <use xlink:href="#glyph0-1" x="14.25" y="95.43457"/>
  <use xlink:href="#glyph0-2" x="24.272461" y="95.43457"/>
</g>
<path style="fill:none;stroke-width:1;stroke-linecap:butt;stroke-linejoin:miter;stroke:rgb(0%,0%,0%);stroke-opacity:1;stroke-miterlimit:10;" d="M 100.492188 134.199219 L 100.492188 134.199219 M 102.054688 136.761719 L 102.835938 136.074219 M 103.613281 139.324219 L 105.179688 137.949219 M 105.171875 141.886719 L 107.519531 139.824219 M 106.730469 144.449219 L 109.863281 141.695312 M 108.289062 147.015625 L 112.203125 143.570312 M 109.847656 149.578125 L 114.546875 145.445312 M 111.40625 152.140625 L 116.890625 147.320312 M 112.964844 154.703125 L 119.230469 149.195312 M 114.523438 157.265625 L 121.574219 151.070312 M 116.085938 159.828125 L 123.914062 152.945312 M 117.644531 162.390625 L 126.257812 154.820312 M 117.734375 162.542969 L 126.394531 154.929688 "/>
<path style="fill:none;stroke-width:1.2;stroke-linecap:butt;stroke-linejoin:miter;stroke:rgb(100%,0%,0%);stroke-opacity:1;stroke-miterlimit:10;" d="M 117.164062 106.101562 L 108.828125 120.148438 "/>
<path style="fill:none;stroke-width:1.2;stroke-linecap:butt;stroke-linejoin:miter;stroke:rgb(0%,0%,0%);stroke-opacity:1;stroke-miterlimit:10;" d="M 108.828125 120.148438 L 100.492188 134.199219 "/>
<path style="fill:none;stroke-width:1.2;stroke-linecap:butt;stroke-linejoin:miter;stroke:rgb(0%,0%,0%);stroke-opacity:1;stroke-miterlimit:10;" d="M 122.0625 158.734375 L 152.066406 145.800781 "/>
<path style="fill:none;stroke-width:1.2;stroke-linecap:butt;stroke-linejoin:miter;stroke:rgb(0%,0%,0%);stroke-opacity:1;stroke-miterlimit:10;" d="M 152.066406 145.800781 L 181.75 159.445312 "/>
<path style="fill:none;stroke-width:1.2;stroke-linecap:butt;stroke-linejoin:miter;stroke:rgb(0%,0%,0%);stroke-opacity:1;stroke-miterlimit:10;" d="M 158.242188 140.179688 L 181.992188 151.09375 "/>
<path style="fill:none;stroke-width:1.2;stroke-linecap:butt;stroke-linejoin:miter;stroke:rgb(0%,0%,0%);stroke-opacity:1;stroke-miterlimit:10;" d="M 149.035156 113.273438 L 152.066406 145.800781 "/>
<path style="fill:none;stroke-width:1.2;stroke-linecap:butt;stroke-linejoin:miter;stroke:rgb(0%,0%,0%);stroke-opacity:1;stroke-miterlimit:10;" d="M 181.75 159.445312 L 208.40625 140.554688 "/>
<path style="fill:none;stroke-width:1.2;stroke-linecap:butt;stroke-linejoin:miter;stroke:rgb(0%,0%,0%);stroke-opacity:1;stroke-miterlimit:10;" d="M 181.75 159.445312 L 183.265625 175.707031 "/>
<path style="fill:none;stroke-width:1.2;stroke-linecap:butt;stroke-linejoin:miter;stroke:rgb(100%,0%,0%);stroke-opacity:1;stroke-miterlimit:10;" d="M 183.265625 175.707031 L 184.78125 191.972656 "/>
<path style="fill:none;stroke-width:1.2;stroke-linecap:butt;stroke-linejoin:miter;stroke:rgb(0%,0%,0%);stroke-opacity:1;stroke-miterlimit:10;" d="M 208.40625 140.554688 L 238.09375 154.199219 "/>
<path style="fill:none;stroke-width:1.2;stroke-linecap:butt;stroke-linejoin:miter;stroke:rgb(0%,0%,0%);stroke-opacity:1;stroke-miterlimit:10;" d="M 214.585938 134.933594 L 238.335938 145.847656 "/>
<path style="fill:none;stroke-width:1.2;stroke-linecap:butt;stroke-linejoin:miter;stroke:rgb(0%,0%,0%);stroke-opacity:1;stroke-miterlimit:10;" d="M 205.378906 108.027344 L 208.40625 140.554688 "/>
<path style="fill:none;stroke-width:1.2;stroke-linecap:butt;stroke-linejoin:miter;stroke:rgb(0%,0%,0%);stroke-opacity:1;stroke-miterlimit:10;" d="M 238.09375 154.199219 L 264.75 135.308594 "/>
<path style="fill:none;stroke-width:1.2;stroke-linecap:butt;stroke-linejoin:miter;stroke:rgb(0%,0%,0%);stroke-opacity:1;stroke-miterlimit:10;" d="M 264.75 135.308594 L 261.722656 102.78125 "/>
<path style="fill:none;stroke-width:1.2;stroke-linecap:butt;stroke-linejoin:miter;stroke:rgb(0%,0%,0%);stroke-opacity:1;stroke-miterlimit:10;" d="M 256.792969 132.769531 L 254.371094 106.746094 "/>
<path style="fill:none;stroke-width:1.2;stroke-linecap:butt;stroke-linejoin:miter;stroke:rgb(0%,0%,0%);stroke-opacity:1;stroke-miterlimit:10;" d="M 261.722656 102.78125 L 232.035156 89.140625 "/>
<path style="fill:none;stroke-width:1.2;stroke-linecap:butt;stroke-linejoin:miter;stroke:rgb(0%,0%,0%);stroke-opacity:1;stroke-miterlimit:10;" d="M 232.035156 89.140625 L 205.378906 108.027344 "/>
<path style="fill:none;stroke-width:1.2;stroke-linecap:butt;stroke-linejoin:miter;stroke:rgb(0%,0%,0%);stroke-opacity:1;stroke-miterlimit:10;" d="M 233.8125 97.300781 L 212.488281 112.410156 "/>
<path style="fill:none;stroke-width:1.2;stroke-linecap:butt;stroke-linejoin:miter;stroke:rgb(0%,0%,0%);stroke-opacity:1;stroke-miterlimit:10;" d="M 205.378906 108.027344 L 190.535156 101.207031 "/>
<path style="fill:none;stroke-width:1.2;stroke-linecap:butt;stroke-linejoin:miter;stroke:rgb(0%,0%,100%);stroke-opacity:1;stroke-miterlimit:10;" d="M 190.535156 101.207031 L 175.691406 94.386719 "/>
<path style="fill:none;stroke-width:1.2;stroke-linecap:butt;stroke-linejoin:miter;stroke:rgb(0%,0%,100%);stroke-opacity:1;stroke-miterlimit:10;" d="M 175.691406 94.386719 L 162.363281 103.828125 "/>
<path style="fill:none;stroke-width:1.2;stroke-linecap:butt;stroke-linejoin:miter;stroke:rgb(0%,0%,0%);stroke-opacity:1;stroke-miterlimit:10;" d="M 162.363281 103.828125 L 149.035156 113.273438 "/>
<path style="fill:none;stroke-width:1.2;stroke-linecap:butt;stroke-linejoin:miter;stroke:rgb(0%,0%,100%);stroke-opacity:1;stroke-miterlimit:10;" d="M 177.472656 102.546875 L 166.808594 110.101562 "/>
<path style="fill:none;stroke-width:1.2;stroke-linecap:butt;stroke-linejoin:miter;stroke:rgb(0%,0%,0%);stroke-opacity:1;stroke-miterlimit:10;" d="M 166.808594 110.101562 L 156.144531 117.65625 "/>
<path style=" stroke:none;fill-rule:nonzero;fill:rgb(100%,100%,100%);fill-opacity:1;" d="M 170.691406 86.386719 L 180.691406 86.386719 L 180.691406 102.386719 L 170.691406 102.386719 Z M 170.691406 86.386719 "/>
<g style="fill:rgb(0%,0%,100%);fill-opacity:1;">
  <use xlink:href="#glyph0-3" x="170.691406" y="98.762695"/>
</g>
<path style="fill:none;stroke-width:1.2;stroke-linecap:butt;stroke-linejoin:miter;stroke:rgb(0%,0%,0%);stroke-opacity:1;stroke-miterlimit:10;" d="M 149.035156 113.273438 L 133.101562 109.6875 "/>
<path style="fill:none;stroke-width:1.2;stroke-linecap:butt;stroke-linejoin:miter;stroke:rgb(100%,0%,0%);stroke-opacity:1;stroke-miterlimit:10;" d="M 133.101562 109.6875 L 117.164062 106.101562 "/>
<path style=" stroke:none;fill-rule:nonzero;fill:rgb(100%,100%,100%);fill-opacity:1;" d="M 112.164062 98.101562 L 123.164062 98.101562 L 123.164062 114.101562 L 112.164062 114.101562 Z M 112.164062 98.101562 "/>
<g style="fill:rgb(100%,0%,0%);fill-opacity:1;">
  <use xlink:href="#glyph0-2" x="112.164062" y="110.477539"/>
</g>
<path style="fill:none;stroke-width:1.2;stroke-linecap:butt;stroke-linejoin:miter;stroke:rgb(100%,0%,0%);stroke-opacity:1;stroke-miterlimit:10;" d="M 184.78125 191.972656 L 171.453125 201.417969 "/>
<path style="fill:none;stroke-width:1.2;stroke-linecap:butt;stroke-linejoin:miter;stroke:rgb(0%,0%,0%);stroke-opacity:1;stroke-miterlimit:10;" d="M 171.453125 201.417969 L 158.125 210.859375 "/>
<path style=" stroke:none;fill-rule:nonzero;fill:rgb(100%,100%,100%);fill-opacity:1;" d="M 179.78125 183.972656 L 190.78125 183.972656 L 190.78125 199.972656 L 179.78125 199.972656 Z M 179.78125 183.972656 "/>
<g style="fill:rgb(100%,0%,0%);fill-opacity:1;">
  <use xlink:href="#glyph0-2" x="179.78125" y="196.348633"/>
</g>
<path style=" stroke:none;fill-rule:nonzero;fill:rgb(100%,100%,100%);fill-opacity:1;" d="M 14.433594 132.257812 L 35.433594 132.257812 L 35.433594 148.257812 L 14.433594 148.257812 Z M 14.433594 132.257812 "/>
<g style="fill:rgb(100%,0%,0%);fill-opacity:1;">
  <use xlink:href="#glyph0-1" x="14.433594" y="144.633789"/>
  <use xlink:href="#glyph0-2" x="24.456055" y="144.633789"/>
</g>
</g>
</svg>

<svg xmlns="http://www.w3.org/2000/svg" xmlns:xlink="http://www.w3.org/1999/xlink" width="300pt" height="300pt" viewBox="0 0 300 300"><defs><symbol overflow="visible"><path d="M.64 2.297v-11.47h6.5v11.47zm.735-.72h5.047V-8.436H1.375zm0 0"/></symbol><symbol overflow="visible" id="a"><path d="M1.28-9.484h1.282v3.89H7.22v-3.89H8.5V0H7.22v-4.516H2.562V0H1.28zm0 0"/></symbol><symbol overflow="visible" id="b"><path d="M5.125-8.61c-.938 0-1.684.352-2.234 1.047-.542.688-.812 1.633-.812 2.83 0 1.198.27 2.147.813 2.842.55.687 1.297 1.03 2.235 1.03.926 0 1.66-.343 2.203-1.03.55-.696.828-1.645.828-2.844 0-1.196-.277-2.14-.828-2.829-.543-.695-1.277-1.046-2.203-1.046zm0-1.046c1.32 0 2.38.45 3.172 1.344.8.898 1.203 2.09 1.203 3.578 0 1.5-.402 2.7-1.203 3.593C7.504-.255 6.445.186 5.125.186c-1.336 0-2.402-.44-3.203-1.328C1.13-2.036.734-3.235.734-4.735c0-1.49.395-2.68 1.188-3.579.8-.894 1.867-1.343 3.203-1.343zm0 0"/></symbol><symbol overflow="visible" id="c"><path d="M1.28-9.484H3l4.203 7.937v-7.937h1.25V0H6.72L2.515-7.922V0H1.28zm0 0"/></symbol></defs><g><path fill="#fff" d="M0 0h300v300H0z"/><path d="M67.965 137.227m-.246 2.992l1.038-.1m-1.285 3.087l2.078-.19m-2.32 3.182l3.114-.294m-3.36 3.28l4.153-.385m-4.4 3.376l5.193-.48m-5.438 3.472l6.23-.582m-6.476 3.57l7.27-.676m-7.512 3.668l8.305-.773m-8.552 3.762l9.344-.87m-9.59 3.862l10.383-.97m-10.63 3.957l11.422-1.062m-11.433 1.238l11.48-1.07" stroke="#000" stroke-miterlimit="10" fill="none"/><path d="M67.965 137.227L64.937 104.7M67.965 137.227l32.527-3.028M67.965 137.227L51.7 138.742" stroke-width="1.2" stroke="#000" stroke-miterlimit="10" fill="none"/><path d="M51.7 138.742l-16.266 1.516" stroke-width="1.2" stroke="#f00" stroke-miterlimit="10" fill="none"/><path d="M64.938 104.7l-14.844-6.82" stroke-width="1.2" stroke="#000" stroke-miterlimit="10" fill="none"/><path d="M50.094 97.88L35.25 91.06" stroke-width="1.2" stroke="#f00" stroke-miterlimit="10" fill="none"/><path d="M14.25 83.06h21v16h-21zm0 0" fill="#fff"/><g fill="#f00"><use xlink:href="#a" x="14.25" y="95.435"/><use xlink:href="#b" x="24.272" y="95.435"/></g><path d="M100.492 134.2m1.563 2.562l.78-.688m.778 3.25l1.567-1.375m-.008 3.937l2.348-2.063m-.79 4.625l3.133-2.755m-1.574 5.32l3.913-3.445m-2.355 6.008l4.7-4.133m-3.142 6.696l5.485-4.82m-3.925 7.383l6.265-5.508m-4.707 8.07l7.05-6.195m-5.487 8.758l7.828-6.883m-6.27 9.446l8.614-7.57m-8.524 7.723l8.66-7.613" stroke="#000" stroke-miterlimit="10" fill="none"/><path d="M117.164 106.102l-8.336 14.046" stroke-width="1.2" stroke="#f00" stroke-miterlimit="10" fill="none"/><path d="M108.828 120.148l-8.336 14.05M122.063 158.734l30.003-12.933M152.066 145.8l29.684 13.645M158.242 140.18l23.75 10.914M149.035 113.273l3.03 32.528M181.75 159.445l26.656-18.89M181.75 159.445l1.516 16.262" stroke-width="1.2" stroke="#000" stroke-miterlimit="10" fill="none"/><path d="M183.266 175.707l1.515 16.266" stroke-width="1.2" stroke="#f00" stroke-miterlimit="10" fill="none"/><path d="M208.406 140.555l29.688 13.644M214.586 134.934l23.75 10.914M205.38 108.027l3.026 32.528M238.094 154.2l26.656-18.89M264.75 135.31l-3.027-32.53M256.793 132.77l-2.422-26.024M261.723 102.78l-29.688-13.64M232.035 89.14l-26.656 18.887M233.813 97.3l-21.325 15.11M205.38 108.027l-14.845-6.82" stroke-width="1.2" stroke="#000" stroke-miterlimit="10" fill="none"/><path d="M190.535 101.207l-14.844-6.82M175.69 94.387l-13.327 9.44" stroke-width="1.2" stroke="#00f" stroke-miterlimit="10" fill="none"/><path d="M162.363 103.828l-13.328 9.445" stroke-width="1.2" stroke="#000" stroke-miterlimit="10" fill="none"/><path d="M177.473 102.547l-10.664 7.555" stroke-width="1.2" stroke="#00f" stroke-miterlimit="10" fill="none"/><path d="M166.81 110.102l-10.665 7.554" stroke-width="1.2" stroke="#000" stroke-miterlimit="10" fill="none"/><path d="M170.69 86.387h10v16h-10zm0 0" fill="#fff"/><use xlink:href="#c" x="170.691" y="98.763" fill="#00f"/><path d="M149.035 113.273l-15.933-3.585" stroke-width="1.2" stroke="#000" stroke-miterlimit="10" fill="none"/><path d="M133.102 109.688l-15.938-3.586" stroke-width="1.2" stroke="#f00" stroke-miterlimit="10" fill="none"/><path d="M112.164 98.102h11v16h-11zm0 0" fill="#fff"/><use xlink:href="#b" x="112.164" y="110.478" fill="#f00"/><path d="M184.78 191.973l-13.327 9.445" stroke-width="1.2" stroke="#f00" stroke-miterlimit="10" fill="none"/><path d="M171.453 201.418l-13.328 9.44" stroke-width="1.2" stroke="#000" stroke-miterlimit="10" fill="none"/><path d="M179.78 183.973h11v16h-11zm0 0" fill="#fff"/><use xlink:href="#b" x="179.781" y="196.349" fill="#f00"/><path d="M14.434 132.258h21v16h-21zm0 0" fill="#fff"/><g fill="#f00"><use xlink:href="#a" x="14.434" y="144.634"/><use xlink:href="#b" x="24.456" y="144.634"/></g></g></svg>
